projects/seb-pictograms/svg/light/53-Picto-Light_black.svg

<svg xmlns="http://www.w3.org/2000/svg" viewBox="0 0 170 170"><path d="M40.3 103.7a16 16 0 1116-16 16 16 0 01-16 16zm0-29a13 13 0 1013 13 13 13 0 00-13-13zm90 4.3a16 16 0 1116-16 16 16 0 01-16 16zm0-29a13 13 0 1013 13 13 13 0 00-13-13zM83.7 69.9a1.5 1.5 0 01-1.1-.4L70 56.8H33.1a1.5 1.5 0 01-1.5-1.5V8a1.5 1.5 0 011.5-1.5H92A1.5 1.5 0 0193.5 8v47.4a1.5 1.5 0 01-1.5 1.5h-6.8v11.5a1.5 1.5 0 01-.9 1.4zM70.6 53.8a1.5 1.5 0 011.1.4l10.5 10.6v-9.4a1.5 1.5 0 011.5-1.5h6.9V9.5h-56v44.4h36zm94.4 80.8h-11.2V107a16 16 0 00-16-16h-15a16 16 0 00-16 16v27.6h-43v-2.8a16 16 0 00-16-16h-15a16 16 0 00-16 16v2.8H5v3h11.8V165h3v-33.3a13 13 0 0113-13h15a13 13 0 0113 13V165h3v-27.4H165zM109.8 107a13 13 0 0113-13h15a13 13 0 0113 13v27.6h-41z"/></svg>

<svg id="PIKTO_LIGHT" xmlns="http://www.w3.org/2000/svg" viewBox="0 0 170 170"><title>light_black</title><path d="M40.3,103.7a16,16,0,1,1,16-16A16,16,0,0,1,40.3,103.7Zm0-29a13,13,0,1,0,13,13A13,13,0,0,0,40.3,74.7Z"/><path d="M130.3,79a16,16,0,1,1,16-16A16,16,0,0,1,130.3,79Zm0-29a13,13,0,1,0,13,13A13,13,0,0,0,130.3,50Z"/><path d="M83.7,69.9a1.5,1.5,0,0,1-1.1-.4L70,56.8H33.1a1.5,1.5,0,0,1-1.5-1.5V8a1.5,1.5,0,0,1,1.5-1.5H92A1.5,1.5,0,0,1,93.5,8V55.4A1.5,1.5,0,0,1,92,56.9H85.2V68.4a1.5,1.5,0,0,1-.9,1.4ZM70.6,53.8a1.5,1.5,0,0,1,1.1.4L82.2,64.8V55.4a1.5,1.5,0,0,1,1.5-1.5h6.9V9.5H34.6V53.9h36Z"/><path d="M165,134.6H153.8V107a16,16,0,0,0-16-16h-15a16,16,0,0,0-16,16v27.6H63.8v-2.8a16,16,0,0,0-16-16h-15a16,16,0,0,0-16,16v2.8H5v3H16.8V165h3V131.7a13,13,0,0,1,13-13h15a13,13,0,0,1,13,13V165h3V137.6H165ZM109.8,107a13,13,0,0,1,13-13h15a13,13,0,0,1,13,13v27.6h-41Z"/></svg>
